src/components/Icon/assets/copy.svg

<svg xmlns="http://www.w3.org/2000/svg" viewBox="0 0 18 18"><path d="M0 0h12v2.25h-1.5V1.5h-9v12h3.75V15H0V0zm6 3h12v15H6V3zm1.5 1.5v12h9v-12z"/></svg>

<svg xmlns="http://www.w3.org/2000/svg" viewBox="0 0 18 18"><defs><style>.a{fill:#333740;}</style></defs><title>MOS icons NEW</title><path class="a" d="M0,0H12V2.25H10.5V1.5h-9v12H5.25V15H0V0ZM6,3H18V18H6V3ZM7.5,4.5v12h9V4.5Z"/></svg>
